X:11904
T:Walzer CG (wz02220)
S:Hanny Christen. Bd.II  St. Gallen II, Graubünden, Tessin. S.386 (wz02220) orig. C,G
S:Bündner Tänze. S.384-402. Zusammenstellung von Hanny Christen. 
O:Switzerland
%%MIDI program 21
R:Walzer
M:3/4
L:1/8
K:C %%MIDI gchordon
((3GAB) |: "C"cE Gc ec | "G7"BD Gff2 | BD Gf fB | "C"cE Gce2 | cE Gc ec | "G7"BD Gff2 | 
BD Gf fB |1 "C"c4 ((3GAB) :|2 "C"c4 ((3de^f)  |: [K:G] "G"gB dg bg | "D7"fA dc'c'2 | fA dc' c'f | 
"G"gB dgb2 | gB db bg | "D7"fA dc'c'2 |  fA dc' c'f |1 "G"g2z2((3def) :|2 "G"g2z2z2 |] 
% wz02220
% Dez 2, 2016

